src/assets/partners-text_img.svg

<svg width="58" height="61" viewBox="0 0 58 61" fill="none" xmlns="http://www.w3.org/2000/svg">
<path d="M15.2021 10.8085C14.7441 10.086 14.2506 9.38453 13.7233 8.70636C17.2568 6.25178 21.5169 4.93261 25.8878 4.93948C29.7918 4.93948 33.4444 5.96938 36.5587 7.76112C36.3217 9.06005 35.8408 10.3075 35.1391 11.4433C34.9971 11.6606 34.4056 12.2137 33.3291 12.9783C32.8499 13.3169 32.3205 13.6301 31.6847 13.9941L31.4658 14.1154C30.9098 14.4315 30.2769 14.7926 29.6646 15.1933C28.2213 16.1357 26.7189 17.4111 25.7074 19.4737C25.0809 20.7593 24.955 22.2159 25.3525 23.582C25.456 23.9629 25.5122 24.3439 25.5152 24.6825C25.5152 24.7869 25.4708 24.9533 25.2283 25.148C24.955 25.3608 24.6139 25.4782 24.2612 25.481C21.0759 25.4471 18.5619 22.9302 18.1981 18.915C17.9201 15.862 16.6129 13.0376 15.2021 10.8085ZM39.6465 37.4137C40.4272 37.4052 41.1607 37.3573 41.8498 37.2726C39.2204 40.3087 35.7002 42.5263 31.7409 43.641C31.6048 42.566 31.6935 41.2709 32.359 40.0773C32.9268 39.0559 34.3642 38.2912 36.3044 37.8369C37.3796 37.5889 38.4787 37.4471 39.5843 37.4137H39.6465Z" fill="url(#paint0_angular_353_266)"/>
<path d="M5.18512 24.691C5.18512 19.8378 7.01881 15.3965 10.0592 11.9598C10.3609 12.3633 10.6596 12.7978 10.9494 13.2577C12.1384 15.1313 13.0582 17.2532 13.2475 19.3243C13.7502 24.8829 17.6276 30.1509 24.2053 30.2214C27.0475 30.2496 30.4931 28.2124 30.4842 24.6684C30.4842 23.8586 30.3481 23.0686 30.1529 22.3688C30.0547 22.0762 30.0747 21.7592 30.2091 21.48C30.7119 20.4529 31.4572 19.7673 32.4746 19.1042C32.9478 18.7938 33.4388 18.5116 34.0067 18.19L34.2344 18.0602C34.8732 17.6962 35.5978 17.2758 36.2988 16.7791C37.3191 16.054 38.6353 15.0354 39.3362 13.9857C39.8893 13.1562 40.4009 12.0924 40.7972 10.9863C44.5206 14.6635 46.5984 19.5783 46.5911 24.691C46.5911 26.1921 46.4137 27.6537 46.0824 29.0645C45.8863 29.6576 45.583 30.2133 45.1863 30.7067C44.4853 31.573 43.0805 32.6396 39.5965 32.6734H39.487L39.2031 32.6819C37.8251 32.7374 36.4561 32.9217 35.1157 33.2321C32.871 33.7569 29.5821 34.9533 27.9673 37.8568C26.6955 40.1451 26.5477 42.4984 26.8375 44.4227C24.042 44.5439 21.2497 44.1235 18.6292 43.1866C16.0087 42.2498 13.6144 40.8161 11.5908 38.972C9.56725 37.1279 7.95634 34.9117 6.85538 32.4572C5.75442 30.0027 5.18623 27.3608 5.18512 24.691Z" fill="url(#paint1_angular_353_266)"/>
<defs>
<radialGradient id="paint0_angular_353_266" cx="0" cy="0" r="1" gradientUnits="userSpaceOnUse" gradientTransform="translate(29.4042 26.4403) rotate(-133.221) scale(27.3809 15.1095)">
<stop offset="0.241061" stop-color="#154CDB"/>
<stop offset="1" stop-color="#41BC62"/>
</radialGradient>
<radialGradient id="paint1_angular_353_266" cx="0" cy="0" r="1" gradientUnits="userSpaceOnUse" gradientTransform="translate(28.2695 29.5734) rotate(-148) scale(32.55 16.1752)">
<stop offset="0.241061" stop-color="#154CDB"/>
<stop offset="1" stop-color="#41BC62"/>
</radialGradient>
</defs>
</svg>

<svg xmlns="http://www.w3.org/2000/svg" width="58" height="61" fill="none"><path fill="url(#a)" d="M15.202 10.809a26.808 26.808 0 0 0-1.479-2.103c3.534-2.454 7.794-3.773 12.165-3.767 3.904 0 7.556 1.03 10.67 2.822a10.638 10.638 0 0 1-1.419 3.682c-.142.218-.733.77-1.81 1.535-.48.339-1.008.652-1.644 1.016l-.22.121c-.555.316-1.188.678-1.8 1.078-1.444.943-2.946 2.218-3.958 4.28a5.71 5.71 0 0 0-.355 4.109c.104.38.16.762.163 1.1 0 .105-.044.271-.287.466-.273.213-.614.33-.967.333-3.185-.034-5.7-2.55-6.063-6.566-.278-3.053-1.585-5.877-2.996-8.106Zm24.445 26.605c.78-.009 1.514-.057 2.203-.141-2.63 3.036-6.15 5.253-10.11 6.368-.135-1.075-.046-2.37.619-3.564.568-1.021 2.005-1.786 3.945-2.24a16.862 16.862 0 0 1 3.28-.423h.063Z"/><path fill="url(#b)" d="M5.185 24.691c0-4.853 1.834-9.294 4.874-12.731.302.403.6.838.89 1.298 1.19 1.873 2.11 3.995 2.299 6.066.502 5.559 4.38 10.827 10.957 10.897 2.843.029 6.288-2.009 6.28-5.553 0-.81-.137-1.6-.332-2.3a1.178 1.178 0 0 1 .056-.888c.503-1.027 1.248-1.713 2.266-2.376.473-.31.964-.592 1.532-.914l.227-.13c.64-.364 1.364-.784 2.065-1.28 1.02-.726 2.336-1.745 3.037-2.794.553-.83 1.065-1.894 1.461-3 3.724 3.678 5.801 8.592 5.794 13.705 0 1.501-.177 2.963-.509 4.373a5.254 5.254 0 0 1-.896 1.643c-.7.866-2.105 1.933-5.59 1.966h-.109l-.284.009c-1.378.055-2.747.24-4.087.55-2.245.525-5.534 1.721-7.149 4.625-1.271 2.288-1.42 4.641-1.13 6.566a21.62 21.62 0 0 1-8.208-1.236 20.878 20.878 0 0 1-7.038-4.215 19.772 19.772 0 0 1-4.736-6.515 18.982 18.982 0 0 1-1.67-7.766Z"/><defs><radialGradient id="a" cx="0" cy="0" r="1" gradientTransform="matrix(-18.75083 -19.95295 11.01056 -10.3472 29.404 26.44)" gradientUnits="userSpaceOnUse"><stop offset=".241" stop-color="#154CDB"/><stop offset="1" stop-color="#41BC62"/></radialGradient><radialGradient id="b" cx="0" cy="0" r="1" gradientTransform="matrix(-27.60397 -17.24887 8.57155 -13.71735 28.27 29.573)" gradientUnits="userSpaceOnUse"><stop offset=".241" stop-color="#154CDB"/><stop offset="1" stop-color="#41BC62"/></radialGradient></defs></svg>
